src/assets/duotone/CommandSquare.svg

<svg width="24" height="24" viewBox="0 0 24 24"  xmlns="http://www.w3.org/2000/svg">
<path opacity="0.4" d="M16.1898 2H7.81976C4.17976 2 2.00977 4.17 2.00977 7.81V16.18C2.00977 19.82 4.17976 21.99 7.81976 21.99H16.1898C19.8298 21.99 21.9998 19.82 21.9998 16.18V7.81C21.9998 4.17 19.8298 2 16.1898 2Z" />
<path d="M10.7501 14.1498H13.2601C13.7501 14.1498 14.1601 13.7498 14.1601 13.2498V10.7398C14.1601 10.2498 13.7601 9.83984 13.2601 9.83984H10.7501C10.2601 9.83984 9.8501 10.2398 9.8501 10.7398V13.2498C9.8501 13.7498 10.2501 14.1498 10.7501 14.1498Z" />
<path d="M7.79999 18.0004C8.78999 18.0004 9.59998 17.1904 9.59998 16.2004V15.4004C9.59998 14.8504 9.14998 14.4004 8.59998 14.4004H7.79999C6.80999 14.4004 6 15.2104 6 16.2004C6 17.1904 6.80999 18.0004 7.79999 18.0004Z" />
<path d="M7.79999 9.60001H8.59998C9.14998 9.60001 9.59998 9.15001 9.59998 8.60001V7.79999C9.59998 6.80999 8.78999 6 7.79999 6C6.80999 6 6 6.80999 6 7.79999C6 8.78999 6.80999 9.60001 7.79999 9.60001Z" />
<path d="M15.3999 9.60001H16.1999C17.1899 9.60001 17.9999 8.78999 17.9999 7.79999C17.9999 6.80999 17.1899 6 16.1999 6C15.2099 6 14.3999 6.80999 14.3999 7.79999V8.60001C14.3999 9.15001 14.8499 9.60001 15.3999 9.60001Z" />
<path d="M16.1999 18.0004C17.1899 18.0004 17.9999 17.1904 17.9999 16.2004C17.9999 15.2104 17.1899 14.4004 16.1999 14.4004H15.3999C14.8499 14.4004 14.3999 14.8504 14.3999 15.4004V16.2004C14.3999 17.1904 15.2099 18.0004 16.1999 18.0004Z" />
</svg>

<?xml version="1.0" encoding="UTF-8"?>
<svg width="24" height="24" viewBox="0 0 24 24" xmlns="http://www.w3.org/2000/svg">
 <path d="m16.19 2h-8.37c-3.64 0-5.81 2.17-5.81 5.81v8.37c0 3.64 2.17 5.81 5.81 5.81h8.37c3.64 0 5.81-2.17 5.81-5.81v-8.37c0-3.64-2.17-5.81-5.81-5.81z" opacity=".4"/>
 <path d="m10.75 14.15h2.51c0.49 0 0.9-0.4 0.9-0.9v-2.51c0-0.49-0.4-0.89996-0.9-0.89996h-2.51c-0.49 0-0.9 0.39996-0.9 0.89996v2.51c0 0.5 0.4 0.9 0.9 0.9z"/>
 <path d="m7.8 18c0.99 0 1.8-0.81 1.8-1.8v-0.8c0-0.55-0.45-1-1-1h-0.79999c-0.99 0-1.8 0.81-1.8 1.8s0.80999 1.8 1.8 1.8z"/>
 <path d="m7.8 9.6h0.79999c0.55 0 1-0.45 1-1v-0.80002c0-0.99-0.80999-1.8-1.8-1.8s-1.8 0.80999-1.8 1.8 0.80999 1.8 1.8 1.8z"/>
 <path d="m15.4 9.6h0.8c0.99 0 1.8-0.81002 1.8-1.8s-0.81-1.8-1.8-1.8-1.8 0.80999-1.8 1.8v0.80002c0 0.55 0.45 1 1 1z"/>
 <path d="m16.2 18c0.99 0 1.8-0.81 1.8-1.8s-0.81-1.8-1.8-1.8h-0.8c-0.55 0-1 0.45-1 1v0.8c0 0.99 0.81 1.8 1.8 1.8z"/>
</svg>
